X: 33059
T: Pride Of Wexford, The
R: reel
M: 4/4
K: Dmixolydian
AG|((3FED) AD BDAD|~C2EC GCEC|((3FED) AD BDAD|Ad{e}d^c dBAG|
FDAD BDAD|~C2 G,C ECAG|((3FED) AD BDAD|Ad{e}d^c d2||
de|((3fed) Ab afdB|ABAG ((3FGA) D2|fd{e}d^c dcAG|FAEF GBAG
FD~D2 FAdB|cG~G2 EFGd|((3fed) e^c dcAG|((3FGA) dA D2:|

